!!!COM: Mozart, Wolfgang Amadeus
!!!CDT: 1756/01/27/-1791/12/05/
!!!CNT: German
!!!OTL: Piano Sonata No. 11 in A major
!!!SCT1: K<sup>1</sup> 331
!!!SCT2: K<sup>6</sup> 300i
!!!OMV: 2
!!!OMD: Menuetto and Trio
!!!ODT: 1778-1873///
**kern	**kern	**dynam
*staff2	*staff1	*staff1/2
*>[A,A,B,B,C,C,D,D1,D,D2,A,B]	*>[A,A,B,B,C,C,D,D1,D,D2,A,B]	*>[A,A,B,B,C,C,D,D1,D,D2,A,B]
*>norep[A,B,C,D,D2,A,B]	*>norep[A,B,C,D,D2,A,B]	*>norep[A,B,C,D,D2,A,B]
*>A	*>A	*>A
*clefF4	*clefG2	*clefG2
*k[f#c#g#]	*k[f#c#g#]	*k[f#c#g#]
*A:	*A:	*A:
*M3/4	*M3/4	*M3/4
*MM120	*MM120	*MM120
!! Menuetto
=1-	=1-	=1-
.	(32c#qLLL	.
.	32eqJJJ	.
(2AA 2A	(2a)	f
4EE) 4E	4e)	.
=2	=2	=2
4C# (4c#	(8cc#L	.
.	16ddL	.
.	16bJJ	.
4AA 4A)	4a)	.
4r	4r	.
=3	=3	=3
4r	(8eeL	p
.	16ff#L	.
.	16ddJJ	.
4r	4cc#)	.
*clefG2	*	*
4A' 4f#'	4ccc#'	.
=4	=4	=4
(4B 4a	(4dd#	.
4e) 4g#	4.ee)	.
4r	.	.
.	8ee#'	.
=5	=5	=5
2.r	(8gg#L	>
.	8ff#	.
.	8een	.
.	8ddn	.
.	8cc#	.
.	8bJ	]
*clefF4	*	*
=6	=6	=6
(8EL	8aL	.
8d	8g#	.
8B	8ee	.
8d	8ddJ)	.
8B	4r	.
8dJ	.	.
=7	=7	=7
8EL	(8bL	<
8c#	8a	.
8A	8ff#	.
8c#	8eeJ)	.
8A	4r	.
8c#J	.	.
=8	=8	=8
8DL	(8cc#L	f
8B	8b	.
8F#	8ggn	.
8B	8ff#J)	.
8F#	4r	.
8BJ)	.	.
=9	=9	=9
4D	4f#	p
4r	(8eeL	.
.	8dd	.
4r	8cc#	.
.	8bJ	.
=10	=10	=10
4E (4d	8aL	.
.	8g#XJ	.
4A 4c#)	4a)	.
4r	4r	.
=11	=11	=11
.	(>32bqLLL	.
.	32eeq	.
.	32gg#qJJJ	.
(8EL	2.bb)	f
8G#	.	.
8B	.	.
8G#	.	.
8F#	.	.
8EJ	.	.
=12	=12	=12
8D#L	(16bbLL	.
.	16aa	.
8E	16gg#	.
.	16ff#JJ)	.
8F#	(16ff#LL	.
.	16ee	.
8BB	16dd#	.
.	16cc#JJ	.
8C#	16bLL	.
.	16a	.
8D#J	16g#	.
.	16aJJ	.
=13	=13	=13
8EL	16g#LL	.
.	16b	.
8G#	16ee	.
.	16gg#JJ	.
8B	2bb)	.
8G#	.	.
8F#	.	.
8EJ	.	.
=14	=14	=14
8D#L	(16bbLL	.
.	16aa	.
8E	16gg#	.
.	16ff#JJ)	.
8F#	(16ff#LL	.
.	16ee	.
8BB	16dd#	.
.	16cc#JJ	.
8C#	16bLL	.
.	16a	.
8D#J	16g#	.
.	16aJJ)	.
=15	=15	=15
4E)	(16g#LL	.
.	16b	.
.	16a	.
.	16g#JJ	.
4r	16aLL	.
.	16b	.
.	16cc#	.
.	16dd#JJ	.
4r	16eeLL	.
.	16ff#	.
.	16gg#	.
.	16aaJJ	.
=16	=16	=16
2.r	16bbLL	.
.	16ccc#	.
.	16ddd#	.
.	16eeeJJ	.
.	16ddd#LL	.
.	16ccc#	.
.	16bb	.
.	16aaJJ	.
.	16gg#LL	.
.	16ff#	.
.	16ee	.
.	16dd#JJ)	.
*clefG2	*	*
=17	=17	=17
*^	*^	*
(4f#	4A	2ryy	8cc#L	p
.	.	.	16r	.
.	.	.	(16ccc#Jk	.
4g#	2B	.	4ee	.
4a)	.	8gg#L	4dd#	.
.	.	8ff#J	.	.
=18	=18	=18	=18	=18
4g#	4e	4ee	4ee)	.
*clefF4	*	*	*	*
2ryy	4E	2ryy	4r	.
.	4r	.	4r	.
*v	*v	*	*	*
*	*v	*v	*
=19:|!|:	=19:|!|:	=19:|!|:
*>B	*>B	*>B
.	(32eqq	.
2.r	4ee)	f
.	(32f#qq	.
.	4ff#)	.
.	(32gnqq	.
.	4ggn)	.
=20	=20	=20
(8F#L	(4b	p
8c#	.	.
8f#	4a#)	.
8e	.	.
8d	8r	.
8c#J	16r	.
.	16a#'	.
=21	=21	=21
8F#L	4cc#	<
8d	.	.
8f#	4b	.
8d	.	.
8c#	8r	.
8BJ	16r	.
.	16b'	.
=22	=22	=22
8F#L	(4ddn	.
8A#	.	.
8e	4cc#)	.
8c#	.	.
8B	8r	.
8A#J	16r	.
.	16cc#'	.
=23	=23	=23
4B)	(8eeL	f
.	8dd)	.
4r	(8ffn	.
.	8ee)	.
4r	(8ggn	.
.	8ffJ)	.
=24	=24	=24
(8EL	(4a	p
8B	.	.
8e	4g#)	.
8d	.	.
8c#	8r	.
8BJ	16r	.
.	16g#'	.
=25	=25	=25
8EL	(4b	.
8c#	.	.
8e	4a)	.
8c#	.	.
8B	8r	.
8AJ	16r	.
.	16a'	.
=26	=26	=26
8EL	(4cc#	<
8G#	.	.
8d	4b)	.
8B	.	.
8A	8r	.
8G#J	16r	.
.	16b'	.
=27	=27	=27
2A)	(8ddL	.
.	8ccn	.
.	8b	.
.	8aJ	.
4GGn 4Gn	8aa'L)	.
.	8aa'J	.
=28	=28	=28
2FFn 2Fn	(8bbL	f
.	8aa	.
.	8ggn	.
.	8ffn	.
4r	8ee	.
.	8dd#J)	.
=29	=29	=29
*^	*	*
(8AL	2.Fn	(2cccn	sfp
8G#	.	.	.
8A	.	.	.
8cn	.	.	.
8B	.	4dd#)	.
8AJ	.	.	.
=30	=30	=30	=30
4G#)	4E	4.ee	.
2ryy	4r	.	.
.	.	(16ff#LL	.
.	.	16eeJJ)	.
.	4r	(16eeLL	.
.	.	16ddn	.
.	.	16cc#	.
.	.	16bJJ)	.
*v	*v	*	*
=31	=31	=31
.	(16c#qLL	.
.	16eqJJ	.
(2AA/ 2A/	()2a	f
4EE) 4E	4e)	.
=32	=32	=32
4C# (4c#	(8cc#L	.
.	16ddL	.
.	16bJJ	.
4AA 4A)	4a)	.
4r	4r	.
=33	=33	=33
4r	(8eeL	p
.	16ff#L	.
.	16ddJJ	.
4r	4cc#)	.
*clefG2	*	*
4A' 4f#'	4ccc#'	.
=34	=34	=34
(4B 4a	(4dd#	.
4e) 4g#	4.ee)	.
4r	.	.
.	8ee#'	.
=35	=35	=35
2.r	(8gg#L	>
.	8ff#	.
.	8een	.
.	8ddn	.
.	8cc#	.
.	8bJ	]
*clefF4	*	*
=36	=36	=36
8EL	8aL	.
(8d	8g#	.
8B	8ee	.
8d	8ddJ)	.
8B	4r	.
8dJ	.	.
=37	=37	=37
8EL	(8bL	<
8c#	8a	.
8A	8ff#	.
8c#	8eeJ)	.
8A	4r	.
8c#J	.	.
=38	=38	=38
8EL	(8bL	f
8c#	8a	.
8A	8aa	.
8c#	8ggnJ)	.
8A	4r	.
8c#J)	.	.
=39	=39	=39
4D 4A 4d	8ggnL	p
.	(8ff#	.
4r	8ee	.
.	8dd	.
4r	8cc#	.
.	8bJ)	.
=40	=40	=40
*^	*	*
(8.C#L	4ryy	(8eeL	.
.	.	32ff#qLLL	.
.	.	32eeq	.
.	.	32ddqJJJ	.
.	.	16eeL	.
16DJk)	.	16ff#JJ)	.
(4c#	2E	(4a	.
4B)	.	4g#X)	.
*v	*v	*	*
=41	=41	=41
.	(>32aqLLL	.
.	32cc#qJJJ	.
8AL	4ee)	f
(8c#	.	.
8e	2ee	.
8c#	.	.
8B	.	.
8AJ	.	.
=42	=42	=42
8G#L	(16eeLL	.
.	16dd	.
8A	16cc#	.
.	16bJJ)	.
8B	(16bLL	.
.	16a	.
8E	16g#	.
.	16f#JJ	.
8F#	16eLL	.
.	16d	.
8G#J	16c#	.
.	16dJJ	.
=43	=43	=43
8AL	16c#LL	.
.	16e	.
8c#	16a	.
.	16cc#JJ	.
8e	4.ee)	.
8c#	.	.
8B	.	.
8AJ	8eee	.
=44	=44	=44
8G#L	(16eeeLL	.
.	16ddd	.
8A	16ccc#	.
.	16bbJJ)	.
8B	(16bbLL	.
.	16aa	.
8E	16gg#	.
.	16ff#JJ	.
8F#	16eeLL	.
.	16dd	.
8G#J	16cc#	.
.	16ddJJ	.
=45	=45	=45
4A)	16cc#LL	.
.	16ee	.
.	16dd	.
.	16cc#JJ	.
4F# 4A	16ddLL	.
.	16ee	.
.	16ff#	.
.	16gg#JJ	.
4D 4F# 4A	16aaLL	.
.	16bb	.
.	16ccc#	.
.	16dddJJ	.
=46	=46	=46
4C# 4E 4A	16eeeLL	.
.	16ddd	.
.	16ccc#	.
.	16bbJJ	.
4r	16aaLL	.
.	16gg#	.
.	16ff#	.
.	16eeJJ	.
4r	16ddLL	.
.	16cc#	.
.	16b	.
.	16aJJ)	.
=47	=47	=47
*^	*^	*
(4A	4D	(8.ff#TL	2ryy	.
.	.	32gg#LL	.	.
.	.	32aaJJJ	.	.
4c#	2E	4a)	.	.
4d)	.	(8cc#L	4g#	.
.	.	8bJ	.	.
=48	=48	=48	=48	=48
4c#	4A	4a)	4a	.
4AA	2ryy	2ryy	4r	.
4r	.	.	4r	.
*v	*v	*	*	*
*	*v	*v	*
=49:|!	=49:|!	=49:|!
!! Trio
*>C	*>C	*>C
*k[f#c#]	*k[f#c#]	*k[f#c#]
*M3/4	*M3/4	*M3/4
=	=	=
[2.DD [2.D	(8f# 8aL	p
.	8A	.
.	8d 8f#	.
.	8A	.
.	8e 8g	.
.	8AJ	.
=50	=50	=50
4DD] 4D]	8f# 8aL	.
.	8A)	.
4r	(8d 8f#	.
.	8c# 8e	.
4r	8d 8f#	.
.	8e) 8gJ	.
=51	=51	=51
4r	(8f# 8aL	.
.	8d	.
4r	8g 8b	.
.	8d	.
4AA 4A	8g 8cc#	.
.	8eJ	.
=52	=52	=52
*	*^	*
4DD 4D	8f# 8ddL	4r	.
.	8aJ)	.	.
!	!	!LO:TX:i:a:t=L.H.	!
2ryy	(8ff#L	8d (8f#L	.
.	8ee	8c# 8e	.
.	8ff#	8d 8f#	.
.	8ggJ	8e 8gJ)	.
=53	=53	=53	=53
2.ryy	(4aa)	(8f# 8aL	.
.	.	8d	.
.	4bb	8g 8b	.
.	.	8d	.
.	4ccc#)	8g 8cc#	.
.	.	8eJ	.
=54	=54	=54	=54
2.ryy	4ddd	8f# 8ddL	.
.	.	8a)	.
.	4rccc	8f# 8dd	.
.	.	8e 8cc#	.
.	4rccc	8d 8b	.
.	.	8c# 8aJ	.
*	*v	*v	*
=55	=55	=55
4E	(8B 8g#L<	.
.	8e	.
4C#	8c# 8a	.
.	8e	.
4AA	8a 8cc#	.
.	8eJ	.
=56	=56	=56
*	*^	*
4E	4ryy	8g# 8bL	.
.	.	8e)	.
2r	(8dddL	8f# 8dd	.
.	8ccc#	8e 8cc#	.
.	8bb	8d 8b	.
.	8aaJ)	8c# 8aJ	.
=57	=57	=57	=57
.	(32ddd#qq	.	.
2.r	4eee)	(8B 8g#L	.
.	.	8e	.
.	(32ddd#qq	.	.
.	4eee)	8c# 8a	.
.	.	8e	.
.	(32ddd#qq	.	.
.	4eee)	8a 8cc#	.
.	.	8eJ	.
=58	=58	=58	=58
.	(32ddd#qq	.	.
4r	4eee)	8g# 8bL	.
.	.	8eJ)	.
(8AAL	8cc#L	[2e	f
8GG#	(8b	.	.
8AA	8cc#	.	.
8BBJ	8ddnJ	.	.
=59	=59	=59	=59
4C#)	8eeL	4e]	.
.	8a)	.	.
4E	(8cc#	4a	.
.	8e	.	.
4EE	8b	4g#	.
.	8eJ	.	.
=60	=60	=60	=60
4AA	4ryy	8aL	.
.	.	8e)	.
2ryy	8ccc#L	(8a 8cc#	p
.	(8bb	8g# 8b	.
.	8ccc#	8a 8cc#	.
.	8dddJ	8b) 8ddJ	.
=61	=61	=61	=61
2.ryy	4eee	(8cc# 8eeL	.
.	.	8e	.
.	4ccc#	8a 8cc#	.
.	.	8e	.
.	4bb	8g# 8b	.
.	.	8eJ	.
=62	=62	=62	=62
4r	4aa)	8aL	.
.	.	8e	.
4D 4B	2ryy	8f#	f
.	.	8dd	.
4E 4d	.	8b	.
.	.	8g#J	.
*	*v	*v	*
=63	=63	=63
4A 4c#	8aL	.
.	8e	.
4D 4B	8f#	.
.	8dd	.
4E 4d	8b	.
.	8g#J	.
=64	=64	=64
4A 4c#	8aL	.
.	8g#	>
4r	8a	.
.	8b)	.
4r	8gn	.
.	8eJ	]
=65:|!|:	=65:|!|:	=65:|!|:
*>D	*>D	*>D
[2.BBB [2.BB	(8f# 8aL	p
.	8B	.
.	8d# 8f#	.
.	8B	.
.	8e 8g	.
.	8BJ	.
=66	=66	=66
*	*^	*
4BBB] 4BB]	4r	8f# 8aL	.
.	.	8B	.
2ryy	(8cccnL	8d# 8f#	.
.	8bb	8B	.
.	8aa	8e 8g	.
.	8ggJ	8BJ	.
=67	=67	=67	=67
2.ryy	4ff#)	8f# 8aL	.
.	.	8B	.
.	(8aaL	8d# 8f#	.
.	8gg	8B	.
.	8ff#	8e 8g	.
.	8eeJ	8BJ	.
=68	=68	=68	=68
4ryy	4dd#)	4f# 4a)	.
8BB 8BL	2ryy	8b 8bbL	f
8AA 8A	.	8a 8aa	.
8GG 8G	.	8g 8gg	.
8FF# 8F#J	.	8f# 8ff#J	.
*	*v	*v	*
=69	=69	=69
4EE 4E	4e 4ee	.
4EE 4E	4e 4ee	.
4BB 4B	4b 4bb	.
=70	=70	=70
4EE 4E	4e 4ee	.
8BB 8BL	8b 8bbL	.
8AA 8A	8a 8aa	.
8GG 8G	8g 8gg	.
8FF# 8F#J	8f# 8ff#J	.
=71	=71	=71
4EE 4E	4e 4ee	.
4EE 4E	4e 4ee	.
4BB 4B	4b 4bb	.
=72	=72	=72
4EE 4E	4e 4ee	.
4r	8ee'L	p
.	8dd'	.
4r	8ee'	.
.	8ffn'J	.
*clefG2	*	*
=73	=73	=73
*^	*	*
(8cnL	2cn	4gg	.
8e	.	.	.
8g	.	4.gg	.
8e	.	.	.
8fn	4B	.	.
8dJ	.	8gg	.
=74	=74	=74	=74
8cnL	2cn	(4cccn	.
8e	.	.	.
8g	.	4gg)	.
8e	.	.	.
8fn	4B	4r	.
8dJ	.	.	.
=75	=75	=75	=75
8cnL	2cn	4gg	.
8e	.	.	.
8g	.	4.gg	<
8e	.	.	.
8fn	4B	.	.
8dJ	.	8gg	.
=76	=76	=76	=76
8cnL	2cn	(4cccn	.
8e	.	.	.
8g	.	4gg)	.
8e	.	.	.
8c	4r	8r	.
8eJ	.	16r	.
.	.	16gg	.
=77	=77	=77	=77
8B-L	2B-	(4eee	.
8cn	.	.	.
8e	.	4gg)	.
8g	.	.	.
8e	4r	8r	.
8cJ	.	16r	.
.	.	16gg	.
=78	=78	=78	=78
8AL	2A	(4eee	.
8c#	.	.	.
8e	.	4gg)	.
8g	.	.	.
8e	4r	8r	.
8c#J	.	16r	.
.	.	16gg	.
=79	=79	=79	=79
2A 2d)	2ryy	(8ggL	f
.	.	8ffn	.
.	.	8ee	.
.	.	8ff	.
(8eL	4G#	8ee	.
8fnJ	.	8ddJ	.
*v	*v	*	*
=80	=80	=80
4A 4e)	8cc#'L)	.
.	8gg#	.
4r	(8aa	.
.	8gg#	.
4r	8aa	.
.	8eeJ	.
=81	=81	=81
2.B- 2.d 2.g#	8ggnL	.
.	8ffn	.
.	8ee	.
.	8ff	.
.	8ee	.
.	8ddJ	.
=82	=82	=82
4A 4c#X 4a	8aaL	.
.	8gg#	.
4r	8aa	.
.	8ee	.
4A 4d 4fn	8ffn	.
.	8ddJ	.
=83	=83	=83
4A 4c# 4e	8aaL	.
.	8gg#	.
4r	8aa	.
.	8ee	.
4A 4d 4fn	8ffn	.
.	8ddJ	.
=84	=84	=84
4A 4c# 4e	8aL	>
.	8g#	.
4r	8a	.
.	8g#	.
4r	8a	.
.	8g#J)	]
*clefF4	*	*
=85	=85	=85
[2.DD [2.D	(8f#X 8aL	p
.	8A	.
.	8d 8f#	.
.	8A	.
.	8e 8gn	.
.	8AJ	.
=86	=86	=86
4DD] 4D]	8f# 8aL	.
.	8d)	.
4r	(8b 8dd	.
.	8a 8cc#	.
4r	8g 8b	.
.	8f#) 8aJ	.
=87	=87	=87
(4BB	(8gL<	.
.	8d	.
4AA	8f# 8a	.
.	8d	.
4GG)	8g 8b	.
.	8dJ	.
=88	=88	=88
*	*^	*
4D	4ryy	8f# 8aL<	.
.	.	8d)	.
2ryy	(8dddL	(>8b 8dd	.
.	8ccc#	8a 8cc#	.
.	8bb	8g 8b	.
.	8aaJ)	8f# 8aJ)	.
=89	=89	=89	=89
2.ryy	(4gg	(8e 8gL	.
.	.	8d	.
.	4aa	8f# 8a	.
.	.	8d	.
.	4bb)	8g 8b	.
.	.	8dJ	.
=90	=90	=90	=90
2.ryy	4aa	8f# 8aL	.
.	.	8d)	.
.	4raa	(>8g 8b	.
.	.	8f# 8a	.
.	4raa	8e 8g	.
.	.	8d 8f#J)	.
*	*v	*v	*
=91	=91	=91
(4AA	(8c# 8eL<	.
.	8A	.
4FF#	8d 8a	.
.	8A	.
4DD)	8d 8f#	.
.	8AJ	.
=92	=92	=92
*	*^	*
4AA	4ryy	8c# 8eL<	.
.	.	8AJ)	.
2ryy	(8bbL	8g (>8bL	.
.	8aa	8f# 8a	.
.	8gg	8e 8g	.
.	8ff#J)	8d 8f#J)	.
=93	=93	=93	=93
.	(32gg#qq	.	.
2.ryy	4aa)	8c# (>8eL	.
.	.	8A	.
.	(32gg#qq	.	.
.	4aa)	8f# 8a	.
.	.	8A	.
.	(32gg#qq	.	.
.	4aa)	8d 8f#	.
.	.	8AJ	.
=94	=94	=94	=94
.	(32gg#qq	.	.
4r	4aa)	8c# 8eL	.
.	.	8aJ)	.
(8BL	(8ddL	[2d	f
8A#	8cc#	.	.
8B	8dd	.	.
8GJ)	8bJ)	.	.
=95	=95	=95	=95
4F#	4a	8dL]	.
.	.	8A	.
4E	4g	8d	.
.	.	8B	.
4AA	4e	8c#	.
.	.	8AJ	.
=96	=96	=96	=96
4D	8f#L	4d	.
.	8aJ	.	.
2ryy	(8dddL	(8b 8ddL	p
.	8ccc#	8a# 8cc#	.
.	8ddd	8b 8dd	.
.	8bbJ)	8g 8bJ)	.
=97	=97	=97	=97
2.r	(4aa	(8f# 8anL	.
.	.	8d	.
.	4gg	8e 8g	.
.	.	8B	.
.	4ee)	8c# 8e	.
.	.	8AJ	.
=98	=98	=98	=98
*^	*	*	*
2ryy	4r	4ff#)	8d 8f#L	.
.	.	.	8aJ	.
.	4GG\	(8aL	4B	f
.	.	8g	.	.
4G	4AA	8e	4ryy	.
.	.	8c#J	.	.
*	*	*v	*v	*
=99	=99	=99	=99
4F#	4D	8dL	.
.	.	8f#	.
4d	4GG	8a	.
.	.	8g	.
4G	4AA	8e	.
.	.	8c#J	.
*v	*v	*	*
=100	=100	=100
*>D1	*>D1	*>D1
*^	*	*
4F#	4D	8d'L)	.
.	.	(8c#	>
4r	2r	8d	.
.	.	8e	.
4r	.	8f#	.
.	.	8gJ)	]
*v	*v	*	*
=101:|!	=101:|!	=101:|!
*>D2	*>D2	*>D2
4D 4F#	4d	.
4DD	4r	.
4r	4r	.
==	==	==
*-	*-	*-
!!!RDF**kern: > = above
!!!RDF**kern: < = below
!!!YOR: Alte Mozart-Ausgabe, Band 20, Breitkopf &amp; H&auml;rtel 1877-1883.
!!!YOY: 1878
!!!YEC: 2018 Craig Stuart Sapp
!!!YEM: Licence: (CC BY-NC-SA 4.0) https://creativecommons.org/licenses/by-nc-sa/4.0
!!!YER: 2018
!!!ENC: Craig Stuart Sapp
!!!END: 2009/09/30
!!!EED: Craig Stuart Sapp
!!!EEV: 2018/06/17
!!!EFL: 50/69
!!!AGN: piano sonata
!!!AFR: 
!!!title: @{OTL}, K 331 (300i), mvmt. @{OMV}
